icons/eye/eye-off.svg

<svg width="14" height="14" viewBox="0 0 14 14" fill="none"
    xmlns="http://www.w3.org/2000/svg">
    <path d="M3.71464 5.83582C3.2998 6.15482 2.92312 6.54303 2.60038 6.99988C3.70099 8.55794 5.43173 9.31093 7.14432 9.26551L8.05936 10.1805C5.64722 10.5795 3.04166 9.60951 1.57596 7.26453C1.56994 7.25487 1.56562 7.24416 1.56034 7.23426C1.55253 7.21957 1.54514 7.20466 1.53886 7.18933C1.53161 7.17174 1.52639 7.15363 1.52128 7.13562C1.51771 7.12301 1.51409 7.11039 1.51151 7.09754C1.50808 7.08033 1.50529 7.06311 1.5037 7.04578C1.5021 7.0286 1.50155 7.01134 1.50175 6.99402C1.50193 6.98031 1.5024 6.96662 1.5037 6.95301C1.50533 6.93567 1.50803 6.91846 1.51151 6.90125C1.51404 6.88878 1.51683 6.87639 1.5203 6.86414C1.52573 6.84504 1.53201 6.82612 1.53983 6.8075C1.54483 6.79554 1.5505 6.78392 1.55643 6.77234C1.56277 6.76004 1.5685 6.74719 1.57596 6.73523C1.97561 6.09581 2.4615 5.5603 3.0037 5.12488L3.71464 5.83582ZM5.93925 3.81824C8.22283 3.44033 10.6802 4.28979 12.1795 6.37098L12.4236 6.73523L12.4353 6.75965C12.445 6.77719 12.4542 6.79487 12.4617 6.81336L12.4685 6.82605C12.4731 6.83837 12.4757 6.85164 12.4793 6.86414C12.4822 6.87452 12.4858 6.88484 12.4881 6.89539C12.4924 6.91542 12.4941 6.93574 12.4959 6.95594C12.4969 6.96698 12.4986 6.97803 12.4988 6.98914C12.5001 7.05092 12.4895 7.11196 12.4685 7.1698C12.4666 7.17513 12.4638 7.18014 12.4617 7.18543C12.4524 7.20871 12.4413 7.23104 12.4285 7.25281C12.4264 7.25641 12.4258 7.26096 12.4236 7.26453C12.024 7.90392 11.538 8.43948 10.9959 8.87488L10.282 8.16101C10.6967 7.84207 11.0755 7.45661 11.3982 6.99988L11.3699 6.95789C10.2677 5.42778 8.55133 4.68693 6.85331 4.7323L5.93925 3.81824Z" fill="red"/>
    <path d="M2.99994 2.99915L10.9999 10.9991" stroke="green" stroke-linecap="round" stroke-linejoin="round"/>
</svg>

<svg xmlns="http://www.w3.org/2000/svg" width="14" height="14" fill="none" viewBox="0 0 14 14"><path fill="red" d="M3.715 5.836A5.4 5.4 0 0 0 2.6 7c1.101 1.558 2.832 2.31 4.544 2.266l.915.915c-2.412.399-5.017-.571-6.483-2.916l-.016-.03a.5.5 0 0 1-.039-.1l-.01-.037a.5.5 0 0 1 .045-.326l.02-.037c.4-.64.886-1.175 1.428-1.61zm2.224-2.018c2.284-.378 4.741.472 6.24 2.553l.245.364.011.025.027.053.007.013.01.038.01.031.007.06.003.034a.5.5 0 0 1-.03.18l-.007.016-.034.068-.004.012a6.5 6.5 0 0 1-1.428 1.61l-.714-.714A5.4 5.4 0 0 0 11.398 7l-.028-.042c-1.102-1.53-2.819-2.271-4.517-2.226z"/><path stroke="green" stroke-linecap="round" stroke-linejoin="round" d="m3 3 8 8"/></svg>
